X: 470
T: Polska efter Kus-Erik
S: efter [[Personer/Kus-Erik]] (Erik Ersson)
B: EÖ, nr 443
N: ur EÖ: "Norralap."
R: Polska
O: Färila, Hälsingland
N: Se även [[Musik/851|+]]
B: Jämför [[http://www.smus.se/earkiv/fmk/browselarge.php?lang=sw&katalogid=Hs+11&bildnr=00088|SMUS - katalog HS11 bild 88]] nr 6
Z: Nils L
M: 3/4
L: 1/16
K: D
{ABc}d2A2 F2D2 .A,4 | DEFG ABcd efga | b2bg a2af g2e2 | egec d2A2 F2D2 |
d2A2 F2D2 .A,4 | DEFG ABcd efga | b2bg a2af g2e2 | egec d8 ::
{/g}f2d2 fafd fafd | egec egec e2d2 | BdBG BdBG B2cB | A2G2 F2"^?"[DA,]2 "^?"[EC]4 |
DEFG ABcd efga | b2bg a2af g2e2 | egec [dD]8 |
(:musicend:)

(:music:)
